X: 36488
T: Sephardic Song
R: barndance
M: 4/4
K: Dminor
A2|"D" d2 e2 "fB"f2 d2|"e"c2 d2 "D"A4|a2 "d"g2 a2 "G"d2|"G"d2 c2 d2 e2|
f2 e2 d2 d2|"e"A2 "D"d3 d c2|d2 f2 "B"e2 d2|c2 d2 a2 "d"a2|
g2 a2 d2 c2|"E" A2 G2 A4|A2 "D"A2 G2 A2|(d4 "G"d2)||

